X: 6
T: St. Joseph's
I: St. Joseph's	R-94	D	reel
M: C|
R: reel
K: D
"D"defd "A7"cdec| "D"defd A2ef| "A7"g2gf edcB| Aa2a abag|
"D"defd "A7"cdec| "D"defd A2ef| "G" g2gf edcB| "A7"Afec "D"d2dA :|
%%textfont       Times-Roman 9.0
%%text Repeat part B 4 times
%%textfont       Times-Roman 7.0
%%vskip .1cm
|:"D"Af2g fedc| "G"BG2B g4| "A7"e2ef edcB|1 ea2a abag :|2 Afec "D"d2dA |]
%%text Roaring Jelly  R-94

%%vskip 0.4cm

